src/gui/emoticons/rofl.svg

<svg xmlns="http://www.w3.org/2000/svg" xmlns:xlink="http://www.w3.org/1999/xlink" width="16pt" height="16pt" version="1.1" viewBox="0 0 16 16"><defs><linearGradient id="linear0" x1="63.952" x2="63.952" y1="20.106" y2="107.23" gradientTransform="matrix(-0.03745,0.119263,0.119263,0.03745,2.7675,-2.029625)" gradientUnits="userSpaceOnUse"><stop offset=".5" style="stop-color:#fee133;stop-opacity:1"/><stop offset=".612" style="stop-color:#fede32;stop-opacity:1"/><stop offset=".708" style="stop-color:#fcd32f;stop-opacity:1"/><stop offset=".797" style="stop-color:#fac12b;stop-opacity:1"/><stop offset=".883" style="stop-color:#f7a924;stop-opacity:1"/><stop offset=".9" style="stop-color:#f6a323;stop-opacity:1"/></linearGradient><clipPath id="clip1"><path d="M 5 2 L 13 2 L 13 14 L 5 14 Z M 5 2"/></clipPath><clipPath id="clip2"><path d="M 7.285156 7.699219 C 7.867188 5.84375 8.253906 4.070312 8.441406 2.546875 C 8.484375 2.171875 8.898438 1.953125 9.230469 2.140625 C 11.421875 3.351562 12.617188 6.257812 11.730469 9.09375 C 10.753906 12.195312 8.113281 13.660156 5.691406 13.378906 C 5.320312 13.332031 5.109375 12.921875 5.285156 12.589844 C 6.003906 11.234375 6.703125 9.554688 7.285156 7.699219 Z M 7.285156 7.699219"/></clipPath><clipPath id="clip3"><path d="M 5 2 L 10 2 L 10 14 L 5 14 Z M 5 2"/></clipPath><clipPath id="clip4"><path d="M 7.285156 7.699219 C 7.867188 5.84375 8.253906 4.070312 8.441406 2.546875 C 8.484375 2.171875 8.898438 1.953125 9.230469 2.140625 C 11.421875 3.351562 12.617188 6.257812 11.730469 9.09375 C 10.753906 12.195312 8.113281 13.660156 5.691406 13.378906 C 5.320312 13.332031 5.109375 12.921875 5.285156 12.589844 C 6.003906 11.234375 6.703125 9.554688 7.285156 7.699219 Z M 7.285156 7.699219"/></clipPath><clipPath id="clip5"><path d="M 9 5 L 13 5 L 13 13 L 9 13 Z M 9 5"/></clipPath><clipPath id="clip6"><path d="M 7.285156 7.699219 C 7.867188 5.84375 8.253906 4.070312 8.441406 2.546875 C 8.484375 2.171875 8.898438 1.953125 9.230469 2.140625 C 11.421875 3.351562 12.617188 6.257812 11.730469 9.09375 C 10.753906 12.195312 8.113281 13.660156 5.691406 13.378906 C 5.320312 13.332031 5.109375 12.921875 5.285156 12.589844 C 6.003906 11.234375 6.703125 9.554688 7.285156 7.699219 Z M 7.285156 7.699219"/></clipPath><clipPath id="clip7"><path d="M 5 2 L 13 2 L 13 14 L 5 14 Z M 5 2"/></clipPath><clipPath id="clip8"><path d="M 7.285156 7.699219 C 7.867188 5.84375 8.253906 4.070312 8.441406 2.546875 C 8.484375 2.171875 8.898438 1.953125 9.230469 2.140625 C 11.421875 3.351562 12.617188 6.257812 11.730469 9.09375 C 10.753906 12.195312 8.113281 13.660156 5.691406 13.378906 C 5.320312 13.332031 5.109375 12.921875 5.285156 12.589844 C 6.003906 11.234375 6.703125 9.554688 7.285156 7.699219 Z M 7.285156 7.699219"/></clipPath><clipPath id="clip9"><path d="M 3.414062 13.394531 L 5.171875 13.949219 C 6.917969 12.371094 8.21875 10.445312 8.917969 8.214844 C 9.617188 5.984375 9.652344 3.660156 9.125 1.367188 L 7.367188 0.816406 Z M 10.96875 12.429688 C 11.695312 11.734375 12.335938 10.675781 12.734375 9.414062 C 13.132812 8.148438 13.207031 6.914062 13.011719 5.925781 C 11.683594 6.222656 10.542969 7.195312 10.109375 8.589844 C 9.671875 9.980469 10.046875 11.429688 10.96875 12.429688 Z M 10.96875 12.429688"/></clipPath></defs><g id="surface1"><path style="stroke:none;fill-rule:nonzero;fill:url(#linear0)" d="M 8.101562 15.203125 C 7.367188 15.203125 6.609375 15.082031 5.847656 14.84375 C 3.847656 14.214844 2.382812 12.960938 1.605469 11.222656 C 0.898438 9.628906 0.824219 7.746094 1.398438 5.921875 C 2.382812 2.792969 4.914062 0.773438 7.847656 0.773438 C 8.59375 0.773438 9.367188 0.898438 10.148438 1.144531 C 12.164062 1.777344 13.636719 3.03125 14.40625 4.769531 C 15.105469 6.351562 15.175781 8.234375 14.597656 10.066406 C 13.621094 13.1875 11.070312 15.203125 8.101562 15.203125 Z M 8.101562 15.203125"/><path style="stroke:none;fill-rule:nonzero;fill:#eb8f00;fill-opacity:1" d="M 7.851562 0.523438 L 7.851562 1.023438 C 8.570312 1.023438 9.316406 1.144531 10.074219 1.382812 C 12.019531 1.992188 13.4375 3.199219 14.175781 4.871094 C 14.851562 6.398438 14.917969 8.214844 14.359375 9.992188 C 13.414062 13.003906 10.957031 14.953125 8.101562 14.953125 C 7.390625 14.953125 6.660156 14.835938 5.921875 14.605469 C 3.992188 13.996094 2.578125 12.792969 1.832031 11.121094 C 1.152344 9.585938 1.078125 7.765625 1.636719 5.996094 C 2.089844 4.554688 2.886719 3.328125 3.941406 2.445312 C 5.050781 1.515625 6.402344 1.023438 7.847656 1.023438 L 7.851562 0.523438 M 7.851562 0.523438 C 4.554688 0.523438 2.101562 2.847656 1.160156 5.84375 C 0.00390625 9.523438 1.359375 13.695312 5.773438 15.078125 C 6.582031 15.332031 7.359375 15.453125 8.101562 15.453125 C 11.378906 15.453125 13.894531 13.140625 14.839844 10.140625 C 15.996094 6.460938 14.675781 2.300781 10.226562 0.90625 C 9.394531 0.644531 8.601562 0.523438 7.851562 0.523438 Z M 7.851562 0.523438"/><g clip-path="url(#clip1)" clip-rule="nonzero"><g clip-path="url(#clip2)" clip-rule="nonzero"><path style="stroke:none;fill-rule:nonzero;fill:#242424;fill-opacity:1" d="M 7.285156 7.699219 C 7.867188 5.84375 8.253906 4.070312 8.441406 2.546875 C 8.484375 2.171875 8.898438 1.953125 9.230469 2.140625 C 11.421875 3.351562 12.617188 6.257812 11.730469 9.09375 C 10.753906 12.195312 8.113281 13.660156 5.691406 13.378906 C 5.320312 13.332031 5.109375 12.921875 5.285156 12.589844 C 6.003906 11.234375 6.703125 9.554688 7.285156 7.699219 Z M 7.285156 7.699219"/></g></g><g clip-path="url(#clip3)" clip-rule="nonzero"><g clip-path="url(#clip4)" clip-rule="nonzero"><path style="stroke:none;fill-rule:nonzero;fill:#fff;fill-opacity:1" d="M 5.171875 13.949219 L 3.414062 13.394531 L 7.367188 0.816406 L 9.125 1.367188 C 9.652344 3.660156 9.617188 5.984375 8.917969 8.214844 C 8.21875 10.445312 6.917969 12.371094 5.171875 13.949219 Z M 5.171875 13.949219"/></g></g><g clip-path="url(#clip5)" clip-rule="nonzero"><g clip-path="url(#clip6)" clip-rule="nonzero"><path style="stroke:none;fill-rule:nonzero;fill:#ed7770;fill-opacity:1" d="M 10.109375 8.585938 C 10.546875 7.195312 11.683594 6.21875 13.011719 5.925781 C 13.207031 6.910156 13.132812 8.144531 12.734375 9.410156 C 12.335938 10.675781 11.695312 11.734375 10.96875 12.429688 C 10.046875 11.429688 9.671875 9.980469 10.109375 8.585938 Z M 10.109375 8.585938"/></g></g><g clip-path="url(#clip7)" clip-rule="nonzero"><g clip-path="url(#clip8)" clip-rule="nonzero"><g clip-path="url(#clip9)" clip-rule="nonzero"><path style="stroke:none;fill-rule:nonzero;fill:#eb8f00;fill-opacity:1" d="M 8.976562 2.070312 L 8.980469 2.59375 C 9.953125 3.132812 10.722656 4.054688 11.148438 5.191406 C 11.589844 6.371094 11.621094 7.703125 11.230469 8.9375 C 10.476562 11.339844 8.535156 12.890625 6.289062 12.890625 C 6.109375 12.890625 5.929688 12.882812 5.75 12.859375 C 5.75 12.859375 5.738281 12.847656 5.746094 12.832031 C 6.503906 11.402344 7.210938 9.679688 7.78125 7.855469 C 8.355469 6.035156 8.761719 4.21875 8.957031 2.609375 C 8.960938 2.59375 8.976562 2.59375 8.976562 2.59375 Z M 8.976562 2.070312 C 8.714844 2.070312 8.476562 2.265625 8.441406 2.546875 C 8.253906 4.070312 7.867188 5.84375 7.285156 7.699219 C 6.703125 9.554688 6.003906 11.234375 5.285156 12.589844 C 5.109375 12.921875 5.320312 13.332031 5.691406 13.378906 C 5.890625 13.402344 6.089844 13.414062 6.289062 13.414062 C 8.535156 13.414062 10.832031 11.945312 11.730469 9.09375 C 12.617188 6.257812 11.421875 3.351562 9.230469 2.140625 C 9.148438 2.089844 9.0625 2.070312 8.976562 2.070312 Z M 8.976562 2.070312"/></g></g></g><path style="stroke:none;fill-rule:nonzero;fill:#5f7aff;fill-opacity:1" d="M 6.320312 4.226562 C 6.527344 3.5 7.082031 1.703125 7.714844 1.078125 C 7.949219 0.839844 8.265625 0.710938 8.597656 0.710938 C 8.933594 0.710938 9.25 0.84375 9.484375 1.082031 C 9.722656 1.320312 9.851562 1.636719 9.851562 1.96875 C 9.851562 2.304688 9.71875 2.617188 9.480469 2.855469 C 8.851562 3.480469 7.046875 4.027344 6.320312 4.226562 Z M 6.320312 4.226562"/><path style="stroke:none;fill-rule:nonzero;fill:#4864ed;fill-opacity:1" d="M 8.597656 0.898438 C 8.882812 0.898438 9.152344 1.011719 9.355469 1.214844 C 9.765625 1.628906 9.765625 2.304688 9.347656 2.722656 C 8.859375 3.210938 7.507812 3.6875 6.59375 3.957031 C 6.867188 3.046875 7.355469 1.699219 7.847656 1.210938 C 8.046875 1.007812 8.3125 0.898438 8.597656 0.898438 M 8.597656 0.523438 C 8.230469 0.523438 7.863281 0.664062 7.582031 0.941406 C 6.742188 1.777344 6.054688 4.492188 6.054688 4.492188 C 6.054688 4.492188 8.773438 3.820312 9.613281 2.984375 C 10.175781 2.425781 10.179688 1.515625 9.621094 0.949219 C 9.335938 0.667969 8.96875 0.523438 8.597656 0.523438 Z M 8.597656 0.523438"/><path style="stroke:none;fill-rule:nonzero;fill:#5f7aff;fill-opacity:1" d="M 5.238281 15.058594 C 4.625 15.058594 4.09375 14.664062 3.914062 14.078125 C 3.625 13.132812 4.035156 11.070312 4.210938 10.285156 C 4.792969 10.839844 6.28125 12.328125 6.566406 13.269531 C 6.675781 13.625 6.640625 14 6.464844 14.328125 C 6.289062 14.652344 5.996094 14.894531 5.644531 15 C 5.511719 15.039062 5.375 15.058594 5.238281 15.058594 Z M 5.238281 15.058594"/><path style="stroke:none;fill-rule:nonzero;fill:#4864ed;fill-opacity:1" d="M 4.324219 10.648438 C 5.066406 11.382812 6.160156 12.578125 6.386719 13.324219 C 6.578125 13.957031 6.222656 14.628906 5.589844 14.820312 C 5.476562 14.855469 5.359375 14.871094 5.238281 14.871094 C 4.71875 14.871094 4.246094 14.523438 4.09375 14.019531 C 3.867188 13.273438 4.113281 11.671875 4.324219 10.648438 M 4.101562 9.921875 C 4.101562 9.921875 3.359375 12.890625 3.734375 14.128906 C 3.941406 14.808594 4.566406 15.246094 5.242188 15.246094 C 5.390625 15.246094 5.546875 15.226562 5.699219 15.179688 C 6.53125 14.925781 7 14.046875 6.746094 13.214844 C 6.371094 11.976562 4.101562 9.921875 4.101562 9.921875 Z M 4.101562 9.921875"/><path style="stroke:none;fill-rule:nonzero;fill:#242424;fill-opacity:1" d="M 3.886719 10.96875 L 4.125 9.4375 L 2.980469 10.691406 C 2.964844 10.703125 2.949219 10.71875 2.933594 10.730469 C 2.636719 10.96875 2.230469 10.878906 2.089844 10.519531 C 1.980469 10.238281 2.105469 9.890625 2.347656 9.699219 C 2.917969 9.242188 4.261719 8.171875 4.785156 7.753906 C 4.878906 7.679688 5.003906 7.738281 5.003906 7.859375 L 5.039062 10.921875 C 5.039062 10.941406 5.039062 10.960938 5.035156 10.984375 C 5.003906 11.375 4.664062 11.6875 4.300781 11.621094 C 4.027344 11.570312 3.859375 11.28125 3.886719 10.96875 Z M 3.886719 10.96875"/><path style="stroke:none;fill-rule:nonzero;fill:#242424;fill-opacity:1" d="M 6.378906 3.386719 L 5.734375 4.796875 L 5.46875 3.121094 C 5.464844 3.101562 5.460938 3.082031 5.453125 3.0625 C 5.335938 2.699219 4.949219 2.546875 4.632812 2.769531 C 4.386719 2.945312 4.296875 3.300781 4.394531 3.597656 C 4.617188 4.292969 5.144531 5.929688 5.351562 6.566406 C 5.390625 6.679688 5.523438 6.695312 5.59375 6.59375 L 7.3125 4.066406 C 7.324219 4.046875 7.332031 4.03125 7.34375 4.011719 C 7.535156 3.667969 7.421875 3.214844 7.085938 3.074219 C 6.828125 2.964844 6.53125 3.113281 6.378906 3.386719 Z M 6.378906 3.386719"/></g></svg>

<svg xmlns="http://www.w3.org/2000/svg" width="16pt" height="16pt" viewBox="0 0 16 16"><defs><clipPath id="b"><path d="M5 2h8v12H5Zm0 0"/></clipPath><clipPath id="c"><path d="M7.285 7.7c.582-1.856.969-3.63 1.156-5.153a.534.534 0 0 1 .79-.406c2.19 1.21 3.386 4.117 2.5 6.953-.977 3.101-3.618 4.566-6.04 4.285a.54.54 0 0 1-.406-.79c.719-1.355 1.418-3.034 2-4.89m0 0"/></clipPath><clipPath id="d"><path d="M5 2h5v12H5Zm0 0"/></clipPath><clipPath id="e"><path d="M7.285 7.7c.582-1.856.969-3.63 1.156-5.153a.534.534 0 0 1 .79-.406c2.19 1.21 3.386 4.117 2.5 6.953-.977 3.101-3.618 4.566-6.04 4.285a.54.54 0 0 1-.406-.79c.719-1.355 1.418-3.034 2-4.89m0 0"/></clipPath><clipPath id="f"><path d="M9 5h4v8H9Zm0 0"/></clipPath><clipPath id="g"><path d="M7.285 7.7c.582-1.856.969-3.63 1.156-5.153a.534.534 0 0 1 .79-.406c2.19 1.21 3.386 4.117 2.5 6.953-.977 3.101-3.618 4.566-6.04 4.285a.54.54 0 0 1-.406-.79c.719-1.355 1.418-3.034 2-4.89m0 0"/></clipPath><clipPath id="h"><path d="M5 2h8v12H5Zm0 0"/></clipPath><clipPath id="i"><path d="M7.285 7.7c.582-1.856.969-3.63 1.156-5.153a.534.534 0 0 1 .79-.406c2.19 1.21 3.386 4.117 2.5 6.953-.977 3.101-3.618 4.566-6.04 4.285a.54.54 0 0 1-.406-.79c.719-1.355 1.418-3.034 2-4.89m0 0"/></clipPath><clipPath id="j"><path d="m3.414 13.395 1.758.554c1.746-1.578 3.047-3.504 3.746-5.734.7-2.23.734-4.555.207-6.848L7.367.817Zm7.555-.965c.726-.696 1.367-1.754 1.765-3.016.399-1.266.473-2.5.278-3.488a3.92 3.92 0 0 0-2.903 2.664 3.92 3.92 0 0 0 .86 3.84m0 0"/></clipPath><linearGradient id="a" x1="63.952" x2="63.952" y1="20.106" y2="107.23" gradientTransform="rotate(-72.567 .001 -2.9)scale(-.125 .125)" gradientUnits="userSpaceOnUse"><stop offset=".5" style="stop-color:#fee133;stop-opacity:1"/><stop offset=".612" style="stop-color:#fede32;stop-opacity:1"/><stop offset=".708" style="stop-color:#fcd32f;stop-opacity:1"/><stop offset=".797" style="stop-color:#fac12b;stop-opacity:1"/><stop offset=".883" style="stop-color:#f7a924;stop-opacity:1"/><stop offset=".9" style="stop-color:#f6a323;stop-opacity:1"/></linearGradient></defs><path d="M8.102 15.203a7.6 7.6 0 0 1-2.254-.36c-2-.628-3.465-1.882-4.243-3.62-.707-1.594-.78-3.477-.207-5.301C2.383 2.793 4.914.773 7.848.773c.746 0 1.52.125 2.3.372 2.016.632 3.489 1.886 4.258 3.625.7 1.582.77 3.464.192 5.296-.977 3.121-3.528 5.137-6.496 5.137m0 0" style="stroke:none;fill-rule:nonzero;fill:url(#a)"/><path d="M7.852.523v.5c.718 0 1.464.122 2.222.36 1.946.61 3.364 1.816 4.102 3.488.676 1.527.742 3.344.183 5.121-.945 3.012-3.402 4.961-6.257 4.961-.711 0-1.442-.117-2.18-.348-1.93-.609-3.344-1.812-4.09-3.484-.68-1.535-.754-3.355-.195-5.125.453-1.441 1.25-2.668 2.304-3.55a6 6 0 0 1 3.907-1.423zm0 0c-3.297 0-5.75 2.325-6.692 5.32-1.156 3.68.2 7.852 4.613 9.235a7.8 7.8 0 0 0 2.329.375c3.277 0 5.793-2.312 6.738-5.312 1.156-3.68-.164-7.84-4.613-9.235A7.9 7.9 0 0 0 7.852.523m0 0" style="stroke:none;fill-rule:nonzero;fill:#eb8f00;fill-opacity:1"/><g clip-path="url(#b)"><g clip-path="url(#c)"><path d="M7.285 7.7c.582-1.856.969-3.63 1.156-5.153a.534.534 0 0 1 .79-.406c2.19 1.21 3.386 4.117 2.5 6.953-.977 3.101-3.618 4.566-6.04 4.285a.54.54 0 0 1-.406-.79c.719-1.355 1.418-3.034 2-4.89m0 0" style="stroke:none;fill-rule:nonzero;fill:#242424;fill-opacity:1"/></g></g><g clip-path="url(#d)"><g clip-path="url(#e)"><path d="m5.172 13.95-1.758-.555L7.367.816l1.758.551c.527 2.293.492 4.617-.207 6.848-.7 2.23-2 4.156-3.746 5.734m0 0" style="stroke:none;fill-rule:nonzero;fill:#fff;fill-opacity:1"/></g></g><g clip-path="url(#f)"><g clip-path="url(#g)"><path d="M10.11 8.586a3.93 3.93 0 0 1 2.902-2.66c.195.984.12 2.219-.278 3.484s-1.039 2.324-1.765 3.02a3.92 3.92 0 0 1-.86-3.844m0 0" style="stroke:none;fill-rule:nonzero;fill:#ed7770;fill-opacity:1"/></g></g><g clip-path="url(#h)"><g clip-path="url(#i)"><g clip-path="url(#j)"><path d="m8.977 2.07.003.524c.973.539 1.743 1.46 2.168 2.597a5.77 5.77 0 0 1 .082 3.747c-.753 2.402-2.695 3.953-4.94 3.953q-.27.002-.54-.032s-.012-.011-.004-.027c.758-1.43 1.465-3.152 2.035-4.977.574-1.82.98-3.636 1.176-5.246.004-.015.02-.015.02-.015Zm0 0c-.262 0-.5.196-.536.477-.187 1.523-.574 3.297-1.156 5.152-.582 1.856-1.281 3.535-2 4.89a.54.54 0 0 0 .406.79q.3.035.598.035c2.246 0 4.543-1.469 5.441-4.32.887-2.836-.308-5.742-2.5-6.953a.47.47 0 0 0-.253-.07m0 0" style="stroke:none;fill-rule:nonzero;fill:#eb8f00;fill-opacity:1"/></g></g></g><path d="M6.32 4.227c.207-.727.762-2.524 1.395-3.149.234-.238.55-.367.883-.367.336 0 .652.133.886.371a1.247 1.247 0 0 1-.004 1.773c-.628.625-2.433 1.172-3.16 1.372m0 0" style="stroke:none;fill-rule:nonzero;fill:#5f7aff;fill-opacity:1"/><path d="M8.598.898a1.067 1.067 0 0 1 .75 1.825c-.489.488-1.84.965-2.754 1.234.273-.91.761-2.258 1.254-2.746.199-.203.465-.313.75-.313m0-.375c-.368 0-.735.141-1.016.418-.84.836-1.527 3.551-1.527 3.551s2.718-.672 3.558-1.508A1.442 1.442 0 0 0 8.598.524m0 0" style="stroke:none;fill-rule:nonzero;fill:#4864ed;fill-opacity:1"/><path d="M5.238 15.059a1.38 1.38 0 0 1-1.324-.98c-.289-.946.121-3.009.297-3.794.582.555 2.07 2.043 2.355 2.985.11.355.075.73-.101 1.058a1.39 1.39 0 0 1-1.227.73m0 0" style="stroke:none;fill-rule:nonzero;fill:#5f7aff;fill-opacity:1"/><path d="M4.324 10.648c.742.735 1.836 1.93 2.063 2.676a1.2 1.2 0 0 1-1.149 1.547c-.52 0-.992-.348-1.144-.851-.227-.747.02-2.348.23-3.372m-.222-.726s-.743 2.969-.368 4.207a1.577 1.577 0 0 0 1.965 1.05 1.574 1.574 0 0 0 1.047-1.964c-.375-1.238-2.644-3.293-2.644-3.293m0 0" style="stroke:none;fill-rule:nonzero;fill:#4864ed;fill-opacity:1"/><path d="m3.887 10.969.238-1.531L2.98 10.69c-.015.012-.03.028-.046.04-.297.238-.704.148-.844-.211-.11-.282.015-.63.258-.82.57-.458 1.914-1.528 2.437-1.946.094-.074.219-.016.219.105l.035 3.063q.001.029-.004.062c-.031.391-.37.704-.734.637-.274-.05-.442-.34-.414-.652M6.379 3.387l-.645 1.41L5.47 3.12a.3.3 0 0 0-.016-.058c-.117-.364-.504-.516-.82-.293-.246.175-.336.53-.238.828.222.695.75 2.332.957 2.968.039.114.171.13.242.028l1.718-2.528.032-.054c.191-.344.078-.797-.258-.938-.258-.11-.555.04-.707.313m0 0" style="stroke:none;fill-rule:nonzero;fill:#242424;fill-opacity:1"/></svg>
